assets/icons/qvision/elevator.svg

<svg xmlns="http://www.w3.org/2000/svg" enable-background="new 0 0 24 24" height="24" viewBox="0 0 24 24" width="24"><g><rect fill="none" height="24" width="24"/><path d="M19,3H5C3.9,3,3,3.9,3,5v14c0,1.1,0.9,2,2,2h14c1.1,0,2-0.9,2-2V5C21,3.9,20.1,3,19,3z M8.5,6c0.69,0,1.25,0.56,1.25,1.25 c0,0.69-0.56,1.25-1.25,1.25S7.25,7.94,7.25,7.25C7.25,6.56,7.81,6,8.5,6z M11,14h-1v4H7v-4H6v-2.5c0-1.1,0.9-2,2-2h1 c1.1,0,2,0.9,2,2V14z M15.5,17L13,13h5L15.5,17z M13,11l2.5-4l2.5,4H13z"/></g></svg>

<svg width="24" height="24" viewBox="0 0 24 24" fill="none" xmlns="http://www.w3.org/2000/svg">
<g clip-path="url(#clip0_147_6165)">
<path d="M19 3H5C3.9 3 3 3.9 3 5V19C3 20.1 3.9 21 5 21H19C20.1 21 21 20.1 21 19V5C21 3.9 20.1 3 19 3ZM8.5 6C9.19 6 9.75 6.56 9.75 7.25C9.75 7.94 9.19 8.5 8.5 8.5C7.81 8.5 7.25 7.94 7.25 7.25C7.25 6.56 7.81 6 8.5 6ZM11 14H10V18H7V14H6V11.5C6 10.4 6.9 9.5 8 9.5H9C10.1 9.5 11 10.4 11 11.5V14ZM15.5 17L13 13H18L15.5 17ZM13 11L15.5 7L18 11H13Z" fill="#323232"/>
</g>
<defs>
<clipPath id="clip0_147_6165">
<rect width="24" height="24" fill="white"/>
</clipPath>
</defs>
</svg>
